X:1
T:Corydon, 77.77 D
T:Corydon, 77.77 D
T:Lowell Mason, 1841
T:Public Domain Courtesy of the Cyber Hymnal™
C:Lowell Mason, 1841
Z:Public Domain
Z:Courtesy of the Cyber Hymnal™
%%score ( 1 2 ) ( 3 4 )
L:1/8
Q:1/4=115
M:4/4
K:G
V:1 treble 
V:2 treble 
V:3 bass 
V:4 bass 
V:1
 [GB]2 [Dd]2 [EG]2 [FA]2 | [GB]2 [Gc]2 ([GB]2 [FA]2) | [GB]2 [FA]2 (B^c) [Ad]2 | %3
 [Ge]2 ([Fd][E^c]) [Fd]4 | [Gd]2 [GB]2 [Ge]2 [Fd]2 | c2 B2 [FA]4 | [GB]2 G2 [Fd]2 [GB]2 | %7
 [GA]2 [FA]2 G4 |] %8
V:2
 x8 | x8 | x4 G2 x2 | x8 | x8 | (ED) (DG) x4 | x2 G2 x4 | x4 G4 |] %8
V:3
 [D,G,]2 [F,A,]2 [E,B,]2 D,2 | [D,G,]2 [C,E,]2 D,4 | [D,G,]2 D,2 G,2 (DA,) | [E,G,]2 A,2 [D,A,]4 | %4
 [G,B,]2 [D,G,]2 [C,C]2 [D,A,]2 | ([E,G,][F,A,]) G,2 D,4 | [D,G,]2 [E,G,]2 [D,A,]2 [G,B,]2 | %7
 [C,E,]2 (DC) [G,,B,]4 |] %8
V:4
 x6 D,2 | x4 D,4 | x2 D,2 (D,E,) F,2 | x2 A,2 x4 | x8 | x2 (B,,D,) D,4 | x8 | x2 D,2 x4 |] %8

